X:1
T:La bergre de Coulandon
R:Bourre  deux temps
C:Trad.
A:Centre
O:France
M:2/4
Q:1/4=120
K:G
c4B2c2|A6Bc|d3c B2A2|B4G4|
c4B2c2|A6Bc|d3c B2A2|G8:|
|:A3B A2G2|F6G2|A3B c2A2|B4G4|
A3B A2G2|F6G2|A3B c2A2|G8:|
